assets/build/img/exit.svg

<svg width="18" height="18" viewBox="0 0 18 18" fill="none" xmlns="http://www.w3.org/2000/svg">
<path d="M15.1875 0H2.8125C1.26169 0 0 1.26169 0 2.8125V3.51562C0 3.90396 0.314789 4.21875 0.703125 4.21875C1.09146 4.21875 1.40625 3.90396 1.40625 3.51562V2.8125C1.40625 2.03709 2.03709 1.40625 2.8125 1.40625H15.1875C15.9629 1.40625 16.5938 2.03709 16.5938 2.8125V15.1875C16.5938 15.9629 15.9629 16.5938 15.1875 16.5938H2.8125C2.03709 16.5938 1.40625 15.9629 1.40625 15.1875V14.4844C1.40625 14.096 1.09146 13.7812 0.703125 13.7812C0.314789 13.7812 0 14.096 0 14.4844V15.1875C0 16.7383 1.26169 18 2.8125 18H15.1875C16.7383 18 18 16.7383 18 15.1875V2.8125C18 1.26169 16.7383 0 15.1875 0Z" fill="#3AB54A"/>
<path d="M1.61687 9.50195C1.61533 9.50033 1.61374 9.49875 1.61216 9.49717C1.33801 9.22302 1.33801 8.77696 1.6136 8.50137L4.22515 5.87463C4.49895 5.59925 4.49765 5.15407 4.22227 4.88027C3.94689 4.60651 3.5017 4.60777 3.22791 4.88315L0.617802 7.50845C-0.203764 8.33002 -0.204643 9.66631 0.615236 10.489L3.22467 13.1486C3.36235 13.289 3.54438 13.3594 3.7266 13.3594C3.90428 13.3594 4.08213 13.2924 4.21893 13.1582C4.49613 12.8862 4.50039 12.441 4.22842 12.1638L1.61687 9.50195Z" fill="#3AB54A"/>
<path d="M11.707 8.29688H4.21875C3.83041 8.29688 3.51562 8.61166 3.51562 9C3.51562 9.38834 3.83041 9.70312 4.21875 9.70312H11.707C12.0954 9.70312 12.4102 9.38834 12.4102 9C12.4102 8.61166 12.0954 8.29688 11.707 8.29688Z" fill="#3AB54A"/>
</svg>

<svg width="18" height="18" viewBox="0 0 18 18" fill="none" xmlns="http://www.w3.org/2000/svg"><path d="M15.188 0H2.812A2.816 2.816 0 000 2.813v.703a.703.703 0 101.406 0v-.704c0-.775.631-1.406 1.407-1.406h12.374c.776 0 1.407.631 1.407 1.407v12.374c0 .776-.631 1.407-1.407 1.407H2.813a1.408 1.408 0 01-1.407-1.407v-.703a.703.703 0 10-1.406 0v.704A2.816 2.816 0 002.813 18h12.374A2.816 2.816 0 0018 15.187V2.813A2.816 2.816 0 0015.187 0z" fill="#3AB54A"/><path d="M1.617 9.502l-.005-.005a.704.704 0 01.002-.996l2.611-2.626a.703.703 0 10-.997-.992L.618 7.508a2.112 2.112 0 00-.003 2.981l2.61 2.66a.7.7 0 00.994.01.703.703 0 00.01-.995L1.616 9.502z" fill="#3AB54A"/><path d="M11.707 8.297H4.219a.703.703 0 100 1.406h7.488a.703.703 0 100-1.406z" fill="#3AB54A"/></svg>
